src/global/asset/illustration/astro.svg

<svg xmlns="http://www.w3.org/2000/svg" width="1176" height="409" fill="none"><path fill="#fff" d="M168.177 309.754c-11.55-10.558-14.921-32.738-10.109-48.807 8.343 10.131 19.903 13.341 31.878 15.151 18.485 2.797 36.64 1.751 53.813-6.697 1.964-.966 3.78-2.255 5.926-3.556 1.611 4.673 2.031 9.392 1.468 14.195-1.368 11.697-7.19 20.734-16.45 27.582-3.702 2.74-7.62 5.189-11.444 7.773-11.748 7.938-14.927 17.247-10.512 30.79.104.33.198.66.436 1.465-5.999-2.684-10.38-6.592-13.718-11.73-3.526-5.425-5.204-11.424-5.292-17.915-.044-3.159-.044-6.347-.469-9.46-1.038-7.592-4.603-10.992-11.318-11.189-6.892-.199-12.344 4.059-13.79 10.769-.11.514-.27 1.023-.43 1.621z"/><path fill="url(#a)" d="M168.177 309.754c-11.55-10.558-14.921-32.738-10.109-48.807 8.343 10.131 19.903 13.341 31.878 15.151 18.485 2.797 36.64 1.751 53.813-6.697 1.964-.966 3.78-2.255 5.926-3.556 1.611 4.673 2.031 9.392 1.468 14.195-1.368 11.697-7.19 20.734-16.45 27.582-3.702 2.74-7.62 5.189-11.444 7.773-11.748 7.938-14.927 17.247-10.512 30.79.104.33.198.66.436 1.465-5.999-2.684-10.38-6.592-13.718-11.73-3.526-5.425-5.204-11.424-5.292-17.915-.044-3.159-.044-6.347-.469-9.46-1.038-7.592-4.603-10.992-11.318-11.189-6.892-.199-12.344 4.059-13.79 10.769-.11.514-.27 1.023-.43 1.621z"/><path fill="#fff" d="M102.258 258.269s34.2-16.658 68.495-16.658l25.858-80.016c.968-3.87 3.794-6.5 6.986-6.5s6.017 2.63 6.986 6.5l25.857 80.016c40.617 0 68.496 16.658 68.496 16.658S246.844 100.034 246.73 99.717c-1.667-4.679-4.481-7.692-8.276-7.692h-69.709c-3.794 0-6.495 3.013-8.276 7.692-.126.311-58.211 158.552-58.211 158.552m360.579-50.899c0 14.021-17.444 22.395-41.595 22.395-15.72 0-21.278-3.895-21.278-12.074 0-8.569 6.9-12.658 22.618-12.658 14.186 0 26.26.194 40.255 1.947zm.191-17.333c-8.625-1.947-21.661-3.115-37.187-3.115-45.237 0-66.513 10.71-66.513 35.638 0 25.901 14.567 35.833 48.303 35.833 28.562 0 47.92-7.206 55.014-24.928h1.148c-.192 4.285-.381 8.569-.381 11.88 0 9.153 1.531 9.932 9.006 9.932h35.27c-1.917-5.453-3.065-20.838-3.065-34.081 0-14.216.573-24.927.573-39.338 0-29.406-17.633-48.102-72.838-48.102-23.768 0-50.221 4.09-70.346 10.127 1.915 7.984 4.6 24.148 5.942 34.664 17.443-8.179 42.17-11.684 61.338-11.684 26.45 0 33.736 6.037 33.736 18.306zm96.779 25.512c-4.791.585-11.31.585-18.019.585-7.092 0-13.608-.195-18.018-.779 0 1.558-.192 3.31-.192 4.868 0 24.344 15.912 38.559 71.882 38.559 52.71 0 69.77-14.021 69.77-38.753 0-23.37-11.308-34.86-61.336-37.391-38.913-1.753-42.362-6.038-42.362-10.906 0-5.648 4.983-8.569 31.052-8.569 27.027 0 34.311 3.7 34.311 11.49v1.753c3.835-.195 10.735-.39 17.826-.39 6.709 0 13.992.195 18.211.584 0-1.752.191-3.31.191-4.673 0-28.628-23.77-37.976-69.772-37.976-51.755 0-69.198 12.659-69.198 37.391 0 22.201 13.995 36.028 63.64 38.17 36.609 1.169 40.636 5.259 40.636 10.906 0 6.037-5.942 8.764-31.627 8.764-29.52 0-36.995-4.09-36.995-12.464zm168.685-102.631c-13.992 13.048-39.102 26.096-53.094 29.601.192 7.206.192 20.449.192 27.654l12.842.195c-.192 13.827-.384 30.575-.384 41.675 0 25.901 13.608 45.376 55.97 45.376 17.827 0 29.712-1.947 44.471-5.063-1.534-9.543-3.26-24.149-3.835-35.249-8.815 2.921-19.933 4.479-32.202 4.479-17.06 0-23.96-4.674-23.96-18.111 0-11.685 0-22.591.192-32.718 21.853.195 43.704.585 56.545.974-.192-10.127.192-24.733.767-34.47-18.591.39-39.485.584-56.737.584.192-8.568.384-16.748.575-24.927zm114.486 51.414c.191-10.127.383-18.696.575-27.07h-38.53c.576 16.748.576 33.886.576 59.008s-.192 42.455-.576 59.008h44.088c-.767-11.685-.959-31.354-.959-48.102 0-26.485 10.735-34.081 35.078-34.081 11.31 0 19.361 1.364 26.452 3.895.192-9.932 2.109-29.211 3.257-37.78-7.283-2.142-15.334-3.506-25.11-3.506-20.892-.194-36.226 8.374-43.318 28.823zm191.922 31.159c0 21.227-15.33 31.159-39.484 31.159-23.96 0-39.294-9.348-39.294-31.159 0-21.812 15.526-29.991 39.294-29.991 23.964 0 39.484 8.764 39.484 29.991m40.06-.974c0-42.26-32.97-61.15-79.544-61.15-46.769 0-78.588 18.89-78.588 61.15 0 42.065 29.709 64.657 78.396 64.657 49.066 0 79.736-22.592 79.736-64.657"/><defs><linearGradient id="a" x1="155.946" x2="267.461" y1="347.65" y2="294.957" gradientUnits="userSpaceOnUse"><stop stop-color="#D83333"/><stop offset="1" stop-color="#F041FF"/></linearGradient></defs></svg>

<svg width="1176" height="409" viewBox="0 0 1176 409" fill="none" xmlns="http://www.w3.org/2000/svg">
<path d="M168.177 309.754C156.627 299.196 153.256 277.016 158.068 260.947C166.411 271.078 177.971 274.288 189.946 276.098C208.431 278.895 226.586 277.849 243.759 269.401C245.723 268.435 247.539 267.146 249.685 265.845C251.296 270.518 251.716 275.237 251.153 280.04C249.785 291.737 243.963 300.774 234.703 307.622C231.001 310.362 227.083 312.811 223.259 315.395C211.511 323.333 208.332 332.642 212.747 346.185C212.851 346.515 212.945 346.845 213.183 347.65C207.184 344.966 202.803 341.058 199.465 335.92C195.939 330.495 194.261 324.496 194.173 318.005C194.129 314.846 194.129 311.658 193.704 308.545C192.666 300.953 189.101 297.553 182.386 297.356C175.494 297.157 170.042 301.415 168.596 308.125C168.486 308.639 168.326 309.148 168.166 309.746L168.177 309.754Z" fill="white"/>
<path d="M168.177 309.754C156.627 299.196 153.256 277.016 158.068 260.947C166.411 271.078 177.971 274.288 189.946 276.098C208.431 278.895 226.586 277.849 243.759 269.401C245.723 268.435 247.539 267.146 249.685 265.845C251.296 270.518 251.716 275.237 251.153 280.04C249.785 291.737 243.963 300.774 234.703 307.622C231.001 310.362 227.083 312.811 223.259 315.395C211.511 323.333 208.332 332.642 212.747 346.185C212.851 346.515 212.945 346.845 213.183 347.65C207.184 344.966 202.803 341.058 199.465 335.92C195.939 330.495 194.261 324.496 194.173 318.005C194.129 314.846 194.129 311.658 193.704 308.545C192.666 300.953 189.101 297.553 182.386 297.356C175.494 297.157 170.042 301.415 168.596 308.125C168.486 308.639 168.326 309.148 168.166 309.746L168.177 309.754Z" fill="url(#paint0_linear_738_11439)"/>
<path d="M102.258 258.269C102.258 258.269 136.458 241.611 170.753 241.611L196.611 161.595C197.579 157.725 200.405 155.095 203.597 155.095C206.788 155.095 209.614 157.725 210.583 161.595L236.44 241.611C277.057 241.611 304.936 258.269 304.936 258.269C304.936 258.269 246.844 100.034 246.73 99.7166C245.063 95.0384 242.249 92.0254 238.454 92.0254H168.745C164.951 92.0254 162.25 95.0384 160.469 99.7166C160.343 100.028 102.258 258.269 102.258 258.269Z" fill="white"/>
<path d="M462.837 207.37C462.837 221.391 445.393 229.765 421.242 229.765C405.522 229.765 399.964 225.87 399.964 217.691C399.964 209.122 406.864 205.033 422.582 205.033C436.768 205.033 448.842 205.227 462.837 206.98V207.37ZM463.028 190.037C454.403 188.09 441.367 186.922 425.841 186.922C380.604 186.922 359.328 197.632 359.328 222.56C359.328 248.461 373.895 258.393 407.631 258.393C436.193 258.393 455.551 251.187 462.645 233.465H463.793C463.601 237.75 463.412 242.034 463.412 245.345C463.412 254.498 464.943 255.277 472.418 255.277H507.688C505.771 249.824 504.623 234.439 504.623 221.196C504.623 206.98 505.196 196.269 505.196 181.858C505.196 152.452 487.563 133.756 432.358 133.756C408.59 133.756 382.137 137.846 362.012 143.883C363.927 151.867 366.612 168.031 367.954 178.547C385.397 170.368 410.124 166.863 429.292 166.863C455.742 166.863 463.028 172.9 463.028 185.169V190.037Z" fill="white"/>
<path d="M559.807 215.549C555.016 216.134 548.497 216.134 541.788 216.134C534.696 216.134 528.18 215.939 523.77 215.355C523.77 216.913 523.578 218.665 523.578 220.223C523.578 244.567 539.49 258.782 595.46 258.782C648.17 258.782 665.23 244.761 665.23 220.029C665.23 196.659 653.922 185.169 603.894 182.638C564.981 180.885 561.532 176.6 561.532 171.732C561.532 166.084 566.515 163.163 592.584 163.163C619.611 163.163 626.895 166.863 626.895 174.653V176.406C630.73 176.211 637.63 176.016 644.721 176.016C651.43 176.016 658.713 176.211 662.932 176.6C662.932 174.848 663.123 173.29 663.123 171.927C663.123 143.299 639.353 133.951 593.351 133.951C541.596 133.951 524.153 146.61 524.153 171.342C524.153 193.543 538.148 207.37 587.793 209.512C624.402 210.681 628.429 214.771 628.429 220.418C628.429 226.455 622.487 229.182 596.802 229.182C567.282 229.182 559.807 225.092 559.807 216.718V215.549Z" fill="white"/>
<path d="M728.492 112.918C714.5 125.966 689.39 139.014 675.398 142.519C675.59 149.725 675.59 162.968 675.59 170.173L688.432 170.368C688.24 184.195 688.048 200.943 688.048 212.043C688.048 237.944 701.656 257.419 744.018 257.419C761.845 257.419 773.73 255.472 788.489 252.356C786.955 242.813 785.229 228.207 784.654 217.107C775.839 220.028 764.721 221.586 752.452 221.586C735.392 221.586 728.492 216.912 728.492 203.475C728.492 191.79 728.492 180.884 728.684 170.757C750.537 170.952 772.388 171.342 785.229 171.731C785.037 161.604 785.421 146.998 785.996 137.261C767.405 137.651 746.511 137.845 729.259 137.845C729.451 129.277 729.643 121.097 729.834 112.918H728.492Z" fill="white"/>
<path d="M842.978 164.332C843.169 154.205 843.361 145.636 843.553 137.262H805.023C805.599 154.01 805.599 171.148 805.599 196.27C805.599 221.392 805.407 238.725 805.023 255.278H849.111C848.344 243.593 848.152 223.924 848.152 207.176C848.152 180.691 858.887 173.095 883.23 173.095C894.54 173.095 902.591 174.459 909.682 176.99C909.874 167.058 911.791 147.779 912.939 139.21C905.656 137.068 897.605 135.704 887.829 135.704C866.937 135.51 851.603 144.078 844.511 164.527L842.978 164.332Z" fill="white"/>
<path d="M1034.9 195.491C1034.9 216.718 1019.57 226.65 995.416 226.65C971.456 226.65 956.122 217.302 956.122 195.491C956.122 173.679 971.648 165.5 995.416 165.5C1019.38 165.5 1034.9 174.264 1034.9 195.491ZM1074.96 194.517C1074.96 152.257 1041.99 133.367 995.416 133.367C948.647 133.367 916.828 152.257 916.828 194.517C916.828 236.582 946.537 259.174 995.224 259.174C1044.29 259.174 1074.96 236.582 1074.96 194.517Z" fill="white"/>
<defs>
<linearGradient id="paint0_linear_738_11439" x1="155.946" y1="347.65" x2="267.461" y2="294.957" gradientUnits="userSpaceOnUse">
<stop stop-color="#D83333"/>
<stop offset="1" stop-color="#F041FF"/>
</linearGradient>
</defs>
</svg>
